SVG_Azure_Grouped/Workload/Active Directory Domain Services.svg

<?xml version="1.0" encoding="UTF-8" standalone="no"?>
<!-- Generated by Microsoft Visio, SVG Export Active Directory Domain Services.svg Page-1 -->

<svg
   xmlns:dc="http://purl.org/dc/elements/1.1/"
   xmlns:cc="http://creativecommons.org/ns#"
   xmlns:rdf="http://www.w3.org/1999/02/22-rdf-syntax-ns#"
   xmlns:svg="http://www.w3.org/2000/svg"
   xmlns="http://www.w3.org/2000/svg"
   xmlns:sodipodi="http://sodipodi.sourceforge.net/DTD/sodipodi-0.dtd"
   xmlns:inkscape="http://www.inkscape.org/namespaces/inkscape"
   width="0.7086646in"
   height="0.78738207in"
   viewBox="0 0 51.023529 56.691563"
   xml:space="preserve"
   class="st6"
   version="1.1"
   id="svg97"
   sodipodi:docname="Active Directory Domain Services.svg"
   style="font-size:12px;overflow:visible;color-interpolation-filters:sRGB;fill:none;fill-rule:evenodd;stroke-linecap:square;stroke-miterlimit:3"
   inkscape:version="0.92.5 (2060ec1f9f, 2020-04-08)"><metadata
   id="metadata101"><rdf:RDF><cc:Work
       rdf:about=""><dc:format>image/svg+xml</dc:format><dc:type
         rdf:resource="http://purl.org/dc/dcmitype/StillImage" /></cc:Work></rdf:RDF></metadata><sodipodi:namedview
   pagecolor="#ffffff"
   bordercolor="#666666"
   borderopacity="1"
   objecttolerance="10"
   gridtolerance="10"
   guidetolerance="10"
   inkscape:pageopacity="0"
   inkscape:pageshadow="2"
   inkscape:window-width="640"
   inkscape:window-height="480"
   id="namedview99"
   showgrid="false"
   inkscape:zoom="1.385726"
   inkscape:cx="32.709117"
   inkscape:cy="38.381558"
   inkscape:window-x="0"
   inkscape:window-y="0"
   inkscape:window-maximized="0"
   inkscape:current-layer="svg97" />
	<style
   type="text/css"
   id="style2">
	<![CDATA[
		.st1 {fill:url(#grad0-12);stroke:none;stroke-linecap:butt;stroke-width:35.9596}
		.st2 {fill:#003067;stroke:none;stroke-linecap:butt;stroke-width:35.9596}
		.st3 {fill:#50e6ff;stroke:none;stroke-linecap:butt;stroke-width:35.9596}
		.st4 {fill:#773adc;stroke:none;stroke-linecap:butt;stroke-width:33.9999}
		.st5 {fill:#f9f9f9;fill-opacity:0.5;stroke:none;stroke-linecap:butt;stroke-width:33.9999}
		.st6 {fill:none;fill-rule:evenodd;font-size:12px;overflow:visible;stroke-linecap:square;stroke-miterlimit:3}
	]]>
	</style>

	<defs
   id="Patterns_And_Gradients">
		<linearGradient
   id="grad0-12"
   x1="-0.00033340648"
   y1="55.870066"
   x2="43.355205"
   y2="55.870066"
   gradientTransform="scale(0.77683868,1.2872685)"
   gradientUnits="userSpaceOnUse">
			<stop
   offset="0"
   stop-color="#949494"
   stop-opacity="1"
   id="stop4" />
			<stop
   offset="0.53"
   stop-color="#a2a2a2"
   stop-opacity="1"
   id="stop6" />
			<stop
   offset="1"
   stop-color="#b3b3b3"
   stop-opacity="1"
   id="stop8" />
		</linearGradient>
	</defs>
	<g
   id="g95"
   transform="translate(-35.96008,-35.960136)">
		<title
   id="title12">Page-1</title>
		<g
   id="group16406-1"
   transform="translate(35.9599,-35.0783)">
			<title
   id="title14">Active Directory Domain Services.16406</title>
			<g
   id="group16407-2">
				<title
   id="title16">Page-1</title>
				<g
   id="group16408-3">
					<title
   id="title18">Sheet.16408</title>
					<g
   id="group16409-4">
						<title
   id="title20">Sheet.16409</title>
						<g
   id="group16410-5"
   transform="translate(0,-0.881343)">
							<title
   id="title22">Sheet.16410</title>
							<g
   id="group16411-6">
								<title
   id="title24">Icon-databases-136.149</title>
								<g
   id="group16412-7">
									<title
   id="title26">path4-5</title>
									<g
   id="group16413-8">
										<title
   id="title28">Sheet.16413</title>
										<g
   id="shape16414-9">
											<title
   id="title30">Sheet.16414</title>
											<path
   d="m 33.68,125.83 a 1.98935,1.93629 -180 0 1 -1.95,1.9 H 1.95 A 1.95505,1.9029 -180 0 1 0,125.83 V 73.82 a 1.92075,1.86952 -180 0 1 1.95,-1.9 h 29.78 a 1.95505,1.9029 -180 0 1 1.95,1.9 z"
   class="st1"
   id="path32"
   inkscape:connector-curvature="0"
   style="fill:url(#grad0-12);stroke:none;stroke-width:35.95959854;stroke-linecap:butt" />
										</g>
									</g>
								</g>
								<g
   id="group16415-13"
   transform="translate(4.93907,-32.6831)">
									<title
   id="title37">path6-7</title>
									<g
   id="group16416-14">
										<title
   id="title39">Sheet.16416</title>
										<g
   id="shape16417-15">
											<title
   id="title41">Sheet.16417</title>
											<path
   d="m 0,124.17 a 3.67,3.57212 -180 0 1 3.64,-3.55 h 16.8 a 3.67,3.57212 -180 0 1 3.77,3.55 3.67,3.57212 -180 0 1 -3.77,3.56 H 3.64 A 3.67,3.57212 -180 0 1 0,124.17 Z m 0,-10.56 a 3.67,3.57212 -180 0 1 3.64,-3.56 h 16.8 a 3.67,3.57212 -180 0 1 3.77,3.56 3.67,3.57212 -180 0 1 -3.77,3.55 H 3.64 A 3.67,3.57212 -180 0 1 0,113.61 Z"
   class="st2"
   id="path43"
   inkscape:connector-curvature="0"
   style="fill:#003067;stroke:none;stroke-width:35.95959854;stroke-linecap:butt" />
										</g>
									</g>
								</g>
								<g
   id="group16418-17"
   transform="translate(6.31103,-44.3964)">
									<title
   id="title48">circle8-5</title>
									<g
   id="group16419-18">
										<title
   id="title50">Sheet.16419</title>
										<g
   id="shape16420-19">
											<title
   id="title52">Sheet.16420</title>
											<ellipse
   cx="2.4695301"
   cy="125.327"
   rx="2.4695301"
   ry="2.4036701"
   class="st3"
   id="ellipse54"
   style="fill:#50e6ff;stroke:none;stroke-width:35.95959854;stroke-linecap:butt" />
										</g>
									</g>
								</g>
								<g
   id="group16421-21"
   transform="translate(6.31103,-33.8471)">
									<title
   id="title59">circle10-2</title>
									<g
   id="group16422-22">
										<title
   id="title61">Sheet.16422</title>
										<g
   id="shape16423-23">
											<title
   id="title63">Sheet.16423</title>
											<ellipse
   cx="2.4695301"
   cy="125.327"
   rx="2.4695301"
   ry="2.4036701"
   class="st3"
   id="ellipse65"
   style="fill:#50e6ff;stroke:none;stroke-width:35.95959854;stroke-linecap:butt" />
										</g>
									</g>
								</g>
							</g>
						</g>
						<g
   id="group16424-25"
   transform="translate(16.2835)">
							<title
   id="title72">Sheet.16424</title>
							<g
   id="group16425-26"
   transform="translate(0.0201419)">
								<title
   id="title74">Sheet.16425</title>
								<g
   id="shape16426-27">
									<title
   id="title76">Sheet.16426</title>
									<path
   d="M 17.36,97.67 0,120.96 l 17.36,6.77 17.36,-6.77 z"
   class="st4"
   id="path78"
   inkscape:connector-curvature="0"
   style="fill:#773adc;stroke:none;stroke-width:33.99990082;stroke-linecap:butt" />
								</g>
							</g>
							<g
   id="group16427-29">
								<title
   id="title82">Sheet.16427</title>
								<g
   id="shape16428-30">
									<title
   id="title84">Sheet.16428</title>
									<path
   d="M 17.36,97.67 0,120.96 l 17.36,6.77 z"
   class="st5"
   id="path86"
   inkscape:connector-curvature="0"
   style="fill:#f9f9f9;fill-opacity:0.5;stroke:none;stroke-width:33.99990082;stroke-linecap:butt" />
								</g>
							</g>
						</g>
					</g>
				</g>
			</g>
		</g>
	</g>
</svg>

<?xml version="1.0" encoding="UTF-8" standalone="no"?>
<!DOCTYPE svg PUBLIC "-//W3C//DTD SVG 1.1//EN" "http://www.w3.org/Graphics/SVG/1.1/DTD/svg11.dtd">
<!-- Generated by Microsoft Visio, SVG Export Active Directory Domain Services.svg Page-1 -->
<svg xmlns="http://www.w3.org/2000/svg" xmlns:xlink="http://www.w3.org/1999/xlink" xmlns:ev="http://www.w3.org/2001/xml-events"
		width="1.68033in" height="1.77404in" viewBox="0 0 120.983 127.731" xml:space="preserve" color-interpolation-filters="sRGB"
		class="st6">
	<style type="text/css">
	<![CDATA[
		.st1 {fill:url(#grad0-12);stroke:none;stroke-linecap:butt;stroke-width:35.9596}
		.st2 {fill:#003067;stroke:none;stroke-linecap:butt;stroke-width:35.9596}
		.st3 {fill:#50e6ff;stroke:none;stroke-linecap:butt;stroke-width:35.9596}
		.st4 {fill:#773adc;stroke:none;stroke-linecap:butt;stroke-width:33.9999}
		.st5 {fill:#f9f9f9;fill-opacity:0.5;stroke:none;stroke-linecap:butt;stroke-width:33.9999}
		.st6 {fill:none;fill-rule:evenodd;font-size:12px;overflow:visible;stroke-linecap:square;stroke-miterlimit:3}
	]]>
	</style>

	<defs id="Patterns_And_Gradients">
		<linearGradient id="grad0-12" x1="0" y1="0" x2="1" y2="0" gradientTransform="rotate(-90 0.5 0.5)">
			<stop offset="0" stop-color="#949494" stop-opacity="1"/>
			<stop offset="0.53" stop-color="#a2a2a2" stop-opacity="1"/>
			<stop offset="1" stop-color="#b3b3b3" stop-opacity="1"/>
		</linearGradient>
	</defs>
	<g>
		<title>Page-1</title>
		<g id="group16023-1" transform="translate(35.9599,-35.0783)">
			<title>Active Directory Domain Services.16023</title>
			<g id="group16024-2">
				<title>Page-1</title>
				<g id="group16025-3">
					<title>Sheet.16025</title>
					<g id="group16026-4">
						<title>Sheet.16026</title>
						<g id="group16027-5" transform="translate(0,-0.881343)">
							<title>Sheet.16027</title>
							<g id="group16028-6">
								<title>Icon-databases-136.149</title>
								<g id="group16029-7">
									<title>path4-5</title>
									<g id="group16030-8">
										<title>Sheet.16030</title>
										<g id="shape16031-9">
											<title>Sheet.16031</title>
											<path d="M33.68 125.83 A1.98935 1.93629 -180 0 1 31.73 127.73 L1.95 127.73 A1.95505 1.9029
														 -180 0 1 0 125.83 L0 73.82 A1.92075 1.86952 -180 0 1 1.95 71.92 L31.73 71.92
														 A1.95505 1.9029 -180 0 1 33.68 73.82 L33.68 125.83 Z" class="st1"/>
										</g>
									</g>
								</g>
								<g id="group16032-13" transform="translate(4.93907,-32.6831)">
									<title>path6-7</title>
									<g id="group16033-14">
										<title>Sheet.16033</title>
										<g id="shape16034-15">
											<title>Sheet.16034</title>
											<path d="M-0 124.17 A3.67 3.57212 -180 0 1 3.64 120.62 L20.44 120.62 A3.67 3.57212 -180
														 0 1 24.21 124.17 A3.67 3.57212 -180 0 1 20.44 127.73 L3.64 127.73 A3.67
														 3.57212 -180 0 1 0 124.17 ZM0 113.61 A3.67 3.57212 -180 0 1 3.64 110.05
														 L20.44 110.05 A3.67 3.57212 -180 0 1 24.21 113.61 A3.67 3.57212 -180 0 1
														 20.44 117.16 L3.64 117.16 A3.67 3.57212 -180 0 1 -0 113.61 Z" class="st2"/>
										</g>
									</g>
								</g>
								<g id="group16035-17" transform="translate(6.31103,-44.3964)">
									<title>circle8-5</title>
									<g id="group16036-18">
										<title>Sheet.16036</title>
										<g id="shape16037-19">
											<title>Sheet.16037</title>
											<ellipse cx="2.46953" cy="125.327" rx="2.46953" ry="2.40367" class="st3"/>
										</g>
									</g>
								</g>
								<g id="group16038-21" transform="translate(6.31103,-33.8471)">
									<title>circle10-2</title>
									<g id="group16039-22">
										<title>Sheet.16039</title>
										<g id="shape16040-23">
											<title>Sheet.16040</title>
											<ellipse cx="2.46953" cy="125.327" rx="2.46953" ry="2.40367" class="st3"/>
										</g>
									</g>
								</g>
							</g>
						</g>
						<g id="group16041-25" transform="translate(16.2835,1.42109E-14)">
							<title>Sheet.16041</title>
							<g id="group16042-26" transform="translate(0.0201419,1.42109E-14)">
								<title>Sheet.16042</title>
								<g id="shape16043-27">
									<title>Sheet.16043</title>
									<path d="M17.36 97.67 L0 120.96 L17.36 127.73 L34.72 120.96 L17.36 97.67 Z" class="st4"/>
								</g>
							</g>
							<g id="group16044-29">
								<title>Sheet.16044</title>
								<g id="shape16045-30">
									<title>Sheet.16045</title>
									<path d="M17.36 97.67 L0 120.96 L17.36 127.73 L17.36 97.67 Z" class="st5"/>
								</g>
							</g>
						</g>
					</g>
				</g>
			</g>
		</g>
	</g>
</svg>
